X:2
T:Cornerhouse [2], The
M:C
L:1/8
S:Johnny O'Leary
B:Moylan - Johnny O'Leary of Sliabh Luachra (1994, No. 315)
K:G
DGGF Gz Bd|e/f/ged edBA|G2-GB dGBG|ABAG ED D2|
DGGF GzB/c/d|e2-ed efga|bg g2 agge|1dBAB G2 GF:|2 dBAB G4||
dggf gfga|bg g2 edBA|G2-GB dGBG|ABAG ED D2|
dggf gfga|bg g2 edBA|G2- GB dBGB|1 AGFA G4:|2 AGFA G2-GF||

